X: 9683
T: Dear Irish Boy, The
R: waltz
M: 3/4
K: Edorian
EF|G FF3 E/F/|{A}B3B (3AFE|E2 F3 E|D4 (3DEF|G F3 E/F/|
{A}B3B (3AFE|E2 F>E D/E/F/D/|E4 EF|
G FF3 E/F/|{A}B3B (3AFE|E2 F3 E|D4 B,2|
E>D EF G>A|(3BAB e>e dBA|B3B AF|G3d (3BAE|~F3E E2|E4||
ee B4|ee (3efe B2|B2 A/F/E/F/ d2|F2 E3 D|D6|ee B4|
(3efe d3 A|B2 A2 AB|e d/e/ f2 e2|d/e/f/d/ e2|(3def g2f2|(3edB e2 e2|
B A/F/E/F/ d2|F2 E2 D2|D4 B,2|E>D EF G>A|
(3BAB e>e (3dBA|B>B A2F2|G3d (3BAE|~F3E E2|E4||

